tools/download-figma-icons/icons/outlined-large/connection.svg

<svg width="64" height="64" viewBox="0 0 64 64" fill="none" xmlns="http://www.w3.org/2000/svg">
<path d="M56.4813 46.9853C54.9117 46.985 53.3823 47.482 52.1127 48.4049L40.2866 37.5583C41.299 36.0502 41.8814 34.2948 41.9712 32.4807C42.0611 30.6665 41.6549 28.8622 40.7965 27.2615L51.5929 19.164C52.9469 20.3459 54.684 20.996 56.4813 20.9934C58.1128 20.9959 59.7008 20.4667 61.0048 19.4861C62.3087 18.5054 63.2578 17.1267 63.7082 15.5585C64.1587 13.9903 64.086 12.3181 63.5012 10.7949C62.9164 9.2717 61.8513 7.98048 60.4672 7.11666C59.0831 6.25284 57.4552 5.86345 55.83 6.00743C54.2048 6.15141 52.6707 6.82091 51.46 7.91461C50.2493 9.00831 49.4278 10.4667 49.1199 12.0689C48.812 13.6712 49.0344 15.3302 49.7535 16.7948L38.9871 24.8622C37.2923 23.1997 35.0587 22.1983 32.6901 22.0388C30.3214 21.8793 27.9737 22.5722 26.0714 23.9925L13.7454 11.6264C14.5629 10.4048 14.9979 8.96748 14.995 7.49766C14.995 6.01476 14.5553 4.56517 13.7315 3.33219C12.9076 2.0992 11.7367 1.13821 10.3667 0.570728C8.9967 0.00324863 7.4892 -0.14523 6.03482 0.144069C4.58045 0.433367 3.24452 1.14745 2.19597 2.19602C1.14743 3.24458 0.433359 4.58054 0.144066 6.03494C-0.145227 7.48934 0.00324857 8.99687 0.570718 10.3669C1.13819 11.7369 2.09916 12.9079 3.33212 13.7317C4.56508 14.5556 6.01465 14.9953 7.49752 14.9953C8.96731 14.9982 10.4046 14.5632 11.6261 13.7457L23.992 26.0719C22.7042 27.777 22.0028 29.8532 21.9927 31.99C21.9934 32.803 22.0976 33.6126 22.3026 34.3993L13.5355 38.0581C12.4789 36.6241 10.9458 35.6137 9.21129 35.2084C7.47681 34.8031 5.65465 35.0294 4.07201 35.8467C2.48937 36.6639 1.24992 38.0187 0.576227 39.6676C-0.0974688 41.3165 -0.161278 43.1516 0.396257 44.8433C0.953792 46.5351 2.09615 47.9726 3.6182 48.8979C5.14025 49.8231 6.94229 50.1754 8.70073 49.8916C10.4592 49.6077 12.0588 48.7063 13.2124 47.3491C14.3661 45.9919 14.9981 44.268 14.995 42.4867C14.995 41.9111 14.9279 41.3374 14.7951 40.7773L23.4522 37.1684C24.5581 38.9591 26.1979 40.3577 28.1407 41.1671L26.1913 48.9847C25.9583 48.9698 25.7246 48.9698 25.4916 48.9847C23.6611 48.9814 21.8926 49.647 20.5185 50.8563C19.1444 52.0656 18.2594 53.7352 18.0299 55.5513C17.8005 57.3673 18.2424 59.2046 19.2725 60.7176C20.3027 62.2307 21.8501 63.3152 23.6238 63.7674C25.3976 64.2195 27.2753 64.008 28.9041 63.1728C30.5328 62.3375 31.8003 60.9359 32.4682 59.2317C33.136 57.5274 33.1583 55.6378 32.5307 53.9183C31.9031 52.1988 30.669 50.7678 29.0604 49.8944L31.0597 41.8969C31.3696 41.8969 31.6795 41.8969 31.9994 41.8969C34.2816 41.8989 36.4948 41.1152 38.2673 39.6776L50.0734 50.6042C49.3598 51.772 48.9827 53.1143 48.9838 54.483C48.9838 55.9659 49.4235 57.4155 50.2473 58.6485C51.0712 59.8814 52.2421 60.8424 53.6121 61.4099C54.9821 61.9774 56.4896 62.1259 57.944 61.8366C59.3983 61.5473 60.7343 60.8332 61.7828 59.7846C62.8314 58.7361 63.5454 57.4001 63.8347 55.9457C64.124 54.4913 63.9755 52.9838 63.4081 51.6137C62.8406 50.2437 61.8796 49.0728 60.6467 48.2489C59.4137 47.425 57.9641 46.9853 56.4813 46.9853ZM7.49752 46.9853C6.6078 46.9853 5.73806 46.7215 4.99828 46.2272C4.2585 45.7329 3.68192 45.0303 3.34144 44.2083C3.00096 43.3863 2.91187 42.4817 3.08545 41.6091C3.25902 40.7365 3.68746 39.9349 4.31659 39.3057C4.94572 38.6766 5.74728 38.2481 6.6199 38.0746C7.49253 37.901 8.39703 37.9901 9.21902 38.3306C10.041 38.6711 10.7436 39.2477 11.2379 39.9874C11.7322 40.7272 11.996 41.597 11.996 42.4867C11.9934 43.679 11.5186 44.8217 10.6755 45.6648C9.83246 46.5079 8.68978 46.9827 7.49752 46.9853ZM25.4916 60.9809C24.6018 60.9809 23.7321 60.7171 22.9923 60.2228C22.2525 59.7285 21.676 59.0259 21.3355 58.2039C20.995 57.3819 20.9059 56.4774 21.0795 55.6047C21.2531 54.7321 21.6815 53.9305 22.3106 53.3014C22.9398 52.6722 23.7413 52.2438 24.6139 52.0702C25.4866 51.8966 26.3911 51.9857 27.2131 52.3262C28.035 52.6667 28.7376 53.2433 29.2319 53.9831C29.7262 54.7229 29.9901 55.5926 29.9901 56.4823C29.9874 57.6746 29.5126 58.8173 28.6696 59.6604C27.8265 60.5035 26.6838 60.9783 25.4916 60.9809ZM56.4813 8.99719C57.371 8.99719 58.2407 9.26103 58.9805 9.75534C59.7203 10.2497 60.2969 10.9522 60.6374 11.7742C60.9778 12.5963 61.0669 13.5008 60.8933 14.3734C60.7198 15.2461 60.2913 16.0476 59.6622 16.6768C59.0331 17.3059 58.2315 17.7344 57.3589 17.9079C56.4863 18.0815 55.5818 17.9924 54.7598 17.6519C53.9378 17.3115 53.2352 16.7349 52.7409 15.9951C52.2466 15.2553 51.9828 14.3855 51.9828 13.4958C51.9854 12.3035 52.4602 11.1608 53.3033 10.3177C54.1463 9.47464 55.289 8.99983 56.4813 8.99719ZM7.49752 11.9963C6.6078 11.9963 5.73806 11.7324 4.99828 11.2381C4.2585 10.7438 3.68192 10.0412 3.34144 9.2192C3.00096 8.39719 2.91187 7.49267 3.08545 6.62003C3.25902 5.74739 3.68746 4.94581 4.31659 4.31667C4.94572 3.68753 5.74728 3.25908 6.6199 3.08551C7.49253 2.91193 8.39703 3.00101 9.21902 3.3415C10.041 3.68199 10.7436 4.25858 11.2379 4.99837C11.7322 5.73816 11.996 6.60792 11.996 7.49766C11.9934 8.68995 11.5186 9.83265 10.6755 10.6757C9.83246 11.5188 8.68978 11.9936 7.49752 11.9963ZM31.9894 38.9878C30.6054 38.9878 29.2525 38.5774 28.1017 37.8085C26.9509 37.0395 26.054 35.9466 25.5244 34.668C24.9947 33.3893 24.8562 31.9822 25.1262 30.6248C25.3962 29.2674 26.0626 28.0205 27.0413 27.0418C28.0199 26.0631 29.2668 25.3967 30.6242 25.1267C31.9816 24.8566 33.3886 24.9952 34.6673 25.5249C35.9459 26.0545 37.0388 26.9514 37.8078 28.1022C38.5767 29.253 38.9871 30.606 38.9871 31.99C38.9871 33.8459 38.2498 35.6259 36.9375 36.9382C35.6252 38.2506 33.8453 38.9878 31.9894 38.9878ZM56.4813 58.9816C55.5916 58.9816 54.7218 58.7177 53.982 58.2234C53.2423 57.7291 52.6657 57.0265 52.3252 56.2045C51.9847 55.3825 51.8956 54.478 52.0692 53.6053C52.2428 52.7327 52.6712 51.9311 53.3003 51.302C53.9295 50.6729 54.731 50.2444 55.6037 50.0708C56.4763 49.8972 57.3808 49.9863 58.2028 50.3268C59.0248 50.6673 59.7273 51.2439 60.2216 51.9837C60.7159 52.7235 60.9798 53.5932 60.9798 54.483C60.9771 55.6753 60.5023 56.818 59.6593 57.661C58.8162 58.5041 57.6735 58.9789 56.4813 58.9816Z" fill="black"/>
</svg>

<svg width="64" height="64" viewBox="0 0 64 64" fill="none" xmlns="http://www.w3.org/2000/svg"><path d="M56.481 46.985c-1.57 0-3.099.497-4.368 1.42L40.287 37.558a9.997 9.997 0 0 0 .51-10.296l10.796-8.098a7.417 7.417 0 0 0 4.888 1.83 7.507 7.507 0 1 0-6.727-4.2l-10.767 8.068a9.947 9.947 0 0 0-12.916-.87L13.745 11.627a7.397 7.397 0 0 0 1.25-4.128 7.498 7.498 0 1 0-7.497 7.497 7.397 7.397 0 0 0 4.128-1.25l12.366 12.327a9.897 9.897 0 0 0-2 5.918c.001.813.106 1.623.31 2.41l-8.766 3.658a7.487 7.487 0 1 0 1.26 2.72l8.656-3.61a10.056 10.056 0 0 0 4.689 4l-1.95 7.817a5.482 5.482 0 0 0-.7 0 7.507 7.507 0 1 0 3.57.91l1.999-7.998H32a9.936 9.936 0 0 0 6.267-2.22l11.806 10.927a7.427 7.427 0 0 0-1.09 3.879 7.498 7.498 0 1 0 7.498-7.498Zm-48.983 0a4.499 4.499 0 1 1 4.498-4.498 4.508 4.508 0 0 1-4.498 4.498Zm17.994 13.996a4.499 4.499 0 1 1 4.498-4.499 4.51 4.51 0 0 1-4.498 4.499Zm30.99-51.984a4.498 4.498 0 1 1-4.5 4.499 4.508 4.508 0 0 1 4.5-4.499Zm-48.984 3a4.499 4.499 0 1 1 4.498-4.5 4.508 4.508 0 0 1-4.498 4.5Zm24.491 26.99a6.998 6.998 0 1 1 0-13.995 6.998 6.998 0 0 1 0 13.996Zm24.492 19.995a4.499 4.499 0 1 1 4.499-4.499 4.509 4.509 0 0 1-4.499 4.499Z" fill="currentColor"/></svg>
